X: 2003
T: Yollarda Kalan Gözlerimin
C: Bîmen Şen
O: Turkey
F: http://compmusic.upf.edu/node/140
N: saba--sarki--senginsemai--yollarda_kalan--bimen_sen
N: makam= saba
N: form= sarki
N: usul= senginsemai = 6/4
M: 6/4
L: 1/16
K: C _2/4B _3/4d  
Q: 1/4=66
%%MIDI tuningsystem comma53
c4 d3c B4 c2BA A8  | g2_7/8a2 g2f2 e2f2 g_1/4bag g8  | \
w:  ARANAĞME  |   | 
c3d e2f2 g2_7/8a2 _1/4bc'ba g2f2 e2d2  | 
w:   | 
c2de d2c2 dcBA B2c2 A8  | c4 d3c B4 c2BA A8  | \
w:   |  ARANAĞME  | 
g2_7/8a2 g2f2 e2f2 g_1/4bag g8  | 
w:   | 
c3d e2f2 g2_7/8a2 _1/4bc'ba g2f2 e2d2  | \
w:   | 
c2de d2c2 dcBA B2c2 A8  | 
w:   | 
A4 d4 c4 B4 c4 dcd2  | e2d4c2 c3B cBBA A8  | \
w:  Yol lar da  ka lan   |  göz *  *  le *  ri *  *  *  min   | 
c2d6 d3c c3B BAA2 eddc  | 
w:  nû *  ru *  nu  *  yor  | 
B2c6 cdcB BAAB c3d cBc2  | e4 f3e e3d d2ed d4 c2B/A/B  | 
w:  dum   *  SAZ  |  Kim dir  *  o  *  na *  *  sıl  | 
c4 dedc B4 c2BA A8  | A2BA G4 A2B2 c2d2 dc2B A2BA  | 
w:  dır  *  *  *  *  di ye  *  *  rüz  |  gâr *  *  *  la *  ra  *  sor  | 
B8 A2B2 cdcB B3c BAB2  | G4 A4 A4 A3/2c/BA G8  | \
w:  dum   SAZ  |  Kim dir  o  na *  *  *  sıl  | 
e=ddc d2e2 c3B A4 BAB4A2  | 
w:  dır  *  *  *  *  *  di *  ye  rüz  | 
c2d6 d3c c4 dcBA B2c2  | A8 e3=d edcd e3f ede2  | 
w:  gâr *  la *  ra  sor  |  dum   SAZ  | 
=d3e e4 e4 eg^fe e8  | c3=B A4 B2cB BAA^G A8  | \
w:  Hül *  yâ mı  tu *  *  *  tan   |  bir  *  *  bü *  *  yü  *  *  *  var   | 
=d2e6 e4 e3d d4 g2^fe  | 
w:  on *  da  di *  yor  | 
e8 f4 efge f3g fef2  | e2f2 f4 f4 e2g2 f8  | \
w:  dum   SAZ  |  Hül *  yâ mı  tu *  tan   | 
f2a4g2 g3f f3e e3=d c4  | 
w:  bir  *  *  bü *  yü  *  var   | 
c2d6 d3c c3B BAA2 eddc  | B2c6 cdcB BAAB c3d cBc2  | 
w:  on *  da  *  di *  yor  |  dum   SAZ  | 
e4 f3e e3d d2ed d4 c2B/A/B  | c4 dedc B4 c2BA A8  | 
w:  Kim dir  *  o  *  na *  *  sıl  |  dır  *  *  *  *  di ye  *  *  rüz  | 
A2BA G4 A2B2 c2d2 dc2B A2BA  | B8 A2B2 cdcB B3c BAB2  | 
w:  gâr *  *  *  la *  ra  *  sor  |  dum   SAZ  | 
G4 A4 A4 A3/2c/BA G8  | e=ddc d2e2 c3B A4 BAB4A2  | 
w:  Kim dir  o  na *  *  *  sıl  |  dır  *  *  *  *  *  di *  ye  rüz  | 
c2d6 d3c c4 dcBA B2c2  | A8 A3G c2BA A8  | |


